X:4
T:Blossom in the Rain
C:Brian Peters
Z:robin.beech@mcgill.ca
S:YouTube
M:3/4
L:1/8
K:Em
E3FGA | B2A2B2 | g3fed | G6 | A3BcA | fA eG dF | e3fge | B6 | 
E3FGA | B2A2B2 | g3fed | G6 | A3BcA | FD3 FG | E6- | E6 ||
e3ee2 | g3fe2 | d3BdB | g6 | f3ff2 | f2e2d2 | e3fge | B6 |
e3ee2 | g3fe2 | d3BdB | b6 | a3gf2 | fg3fd | e2BeGe |E6 ||
